X:3763
L:1/16
M:2/4
K:F
{/g}"F" a^gab afcf |{f} b2b2 a4 |{/b} a^gab afcf |{/f}"C7" a2a2 g4 | bceg c'2>b2 |"F" b2af b2af | 
"C7" a2ge a2ge |"F" f2g2 ^g2a2 |"C7" bceg c'2>b2 |"Gm" b2ag b2ag |"C7" a2ge a2ge |"F" f2f2 f2 z2 || 
[K:C]"C" ggg2 c'c'c'2 | e2ee g4 |"G7" gfdB G2G2 |"C" agec G2G2 | ggg2 c'c'c'2 | e2ef g4 | 
"G7" gfdB G2g2 |"C" c4 z4 |:[K:F]{/c}"C7" e2e2 e2e2 |"F" g2f2 A2>c2 |"C7" d2c2 E2>G2 | 
"F" B2AF d2c2 |{/c}"C7" e2e2 e2e2 |"Bb" g2f2 d2B2 |"F" Adc2"C7" Gdc2 |"F" F2F2 F2 z2 :: 
[K:Bb]"Bb" Fd^cd e2d2 |"Cm" c4 g4 |"F7" g2f2 c2>d2 |"Bb" e2d2 B2>F2 | Fd^cd ed=cB |"F" Acfc a4 | 
"C7" abg=e c^cde |"F7" .f4 !>!e4 |"Bb" Fd^cd e2d2 |"Cm" c4 g4 |"F7" g2f2 c2>d2 |"Bb" e2d2 B2>F2 | 
 Fd^cd ed=cB |"Cm" Gg^fg agec |"Bb" Bdgf"F7" !>!f2>A2 |"Bb" B2B2 B2 z2 :|

